src/assets/icons/close.svg

<svg height="365.696pt" viewBox="0 0 365.696 365.696" width="365.696pt" xmlns="http://www.w3.org/2000/svg"><path d="m243.1875 182.859375 113.132812-113.132813c12.5-12.5 12.5-32.765624 0-45.246093l-15.082031-15.082031c-12.503906-12.503907-32.769531-12.503907-45.25 0l-113.128906 113.128906-113.132813-113.152344c-12.5-12.5-32.765624-12.5-45.246093 0l-15.105469 15.082031c-12.5 12.503907-12.5 32.769531 0 45.25l113.152344 113.152344-113.128906 113.128906c-12.503907 12.503907-12.503907 32.769531 0 45.25l15.082031 15.082031c12.5 12.5 32.765625 12.5 45.246093 0l113.132813-113.132812 113.128906 113.132812c12.503907 12.5 32.769531 12.5 45.25 0l15.082031-15.082031c12.5-12.503906 12.5-32.769531 0-45.25zm0 0"/></svg>

<svg width="366" height="366" viewBox="0 0 366 366" fill="none" xmlns="http://www.w3.org/2000/svg">
<g clip-path="url(#clip0)">
<path d="M243.188 182.859L356.32 69.7266C368.82 57.2266 368.82 36.9609 356.32 24.4805L341.238 9.39844C328.734 -3.10547 308.469 -3.10547 295.988 9.39844L182.859 122.527L69.7266 9.375C57.2266 -3.125 36.9609 -3.125 24.4805 9.375L9.375 24.457C-3.125 36.9609 -3.125 57.2266 9.375 69.707L122.527 182.859L9.39844 295.988C-3.10547 308.492 -3.10547 328.758 9.39844 341.238L24.4805 356.32C36.9805 368.82 57.2461 368.82 69.7266 356.32L182.859 243.188L295.988 356.32C308.492 368.82 328.758 368.82 341.238 356.32L356.32 341.238C368.82 328.734 368.82 308.469 356.32 295.988L243.188 182.859Z" fill="#204051"/>
</g>
<defs>
<clipPath id="clip0">
<rect width="365.696" height="365.696" fill="white"/>
</clipPath>
</defs>
</svg>
